libs/ui/packages/crypto-icons/src/svg/GRAM.svg

<svg width="24" height="24" viewBox="0 0 24 24" fill="none" xmlns="http://www.w3.org/2000/svg">
<path d="M17.5673 4.85791H6.68564C4.68486 4.85791 3.41674 7.01618 4.42328 8.76086L11.1391 20.4012C11.5773 21.1613 12.6756 21.1613 13.1138 20.4012L19.831 8.76086C20.8362 7.01894 19.5681 4.85791 17.5687 4.85791H17.5673ZM11.1336 16.9105L9.6711 14.0799L6.14197 7.76801C5.90914 7.36401 6.19674 6.84633 6.68427 6.84633H11.1322V16.9119L11.1336 16.9105ZM18.1083 7.76661L14.5806 14.0812L13.118 16.9105V6.84497H17.5659C18.0535 6.84497 18.3411 7.36265 18.1083 7.76661Z" fill="white"/>
</svg>

<svg xmlns="http://www.w3.org/2000/svg" width="24" height="24" viewBox="0 0 24 24" fill="none"><path fill="#fff" d="M17.567 4.858H6.686c-2.001 0-3.27 2.158-2.263 3.903L11.14 20.4a1.14 1.14 0 0 0 1.975 0l6.717-11.64c1.005-1.742-.263-3.903-2.262-3.903zM11.134 16.91 9.67 14.08 6.142 7.768a.616.616 0 0 1 .542-.922h4.448v10.066zm6.974-9.143-3.527 6.314-1.463 2.83V6.844h4.448c.488 0 .775.518.542.922"/></svg>
